azure-patterns/svg-ddos-protection-dark.svg

<svg xmlns="http://www.w3.org/2000/svg" viewBox="0 0 156 156">
                                
                            
    <path d="M114.427 23.9634C83.1909 20.4978 78 7 78 7C78 7 70.9877 24.693 26 24.693V97.4714C26 106.227 30.9177 114.526 37.6567 121.731C52.9562 138.056 78 149 78 149C78 149 130 126.2 130 97.4714V24.693C124.809 24.7842 119.618 24.5106 114.427 23.9634ZM99.5832 43.6628V112.428C99.5832 114.526 97.944 116.259 95.8494 116.259C95.8494 116.259 95.8494 116.259 95.7583 116.259H58.6025C56.5079 116.259 54.7776 114.617 54.7776 112.52C54.7776 112.52 54.7776 112.52 54.7776 112.428V43.6628C54.7776 41.5652 56.4168 39.8324 58.5114 39.8324C58.5114 39.8324 58.5114 39.8324 58.6025 39.8324H95.7583C97.8529 39.8324 99.4921 41.474 99.5832 43.6628C99.5832 43.5716 99.5832 43.5716 99.5832 43.6628Z" fill="#1A1A1F"></path>
    <path d="M88.3818 76.2215H73.3555H66.07H65.979C63.338 76.2215 61.1523 78.4103 61.2434 81.1464C61.2434 83.7 63.2469 85.7976 65.7968 85.98C65.8879 85.98 66.07 85.98 66.1611 85.98H88.4728H88.5639C91.2049 85.98 93.3905 83.7912 93.2995 81.0552V80.964C93.2084 78.3191 91.0227 76.1303 88.3818 76.2215ZM66.4343 84.3384C64.704 84.3384 63.2469 82.8792 63.2469 81.1464C63.2469 79.4135 64.704 77.9543 66.4343 77.9543C68.1646 77.9543 69.6217 79.4135 69.6217 81.1464C69.6217 82.8792 68.1646 84.3384 66.4343 84.3384Z" fill="#1A1A1F"></path>
    <path d="M88.3818 61.7208H84.739H66.07H65.979C63.338 61.7208 61.1523 63.9096 61.1523 66.5544C61.1523 69.2905 63.338 71.4793 66.07 71.4793H77.0893H88.3818H88.4728C91.1138 71.4793 93.2995 69.2905 93.2084 66.5544V66.4632C93.2084 63.8184 91.0227 61.6296 88.3818 61.7208ZM66.4343 69.7465C64.704 69.7465 63.2469 68.2872 63.2469 66.5544C63.2469 64.8216 64.704 63.3624 66.4343 63.3624C68.1646 63.3624 69.6217 64.8216 69.6217 66.5544C69.6217 68.2872 68.1646 69.7465 66.4343 69.7465Z" fill="#1A1A1F"></path>
    <path d="M93.1173 51.0503C92.662 48.8615 90.6585 47.311 88.3818 47.311H66.07H65.979C63.338 47.311 61.1523 49.4999 61.2434 52.2359C61.3345 54.8807 63.429 57.0695 66.1611 57.1607H88.4728H88.5639C91.2049 57.1607 93.3905 54.9719 93.2995 52.2359V52.1447C93.2084 51.6887 93.2084 51.3239 93.1173 51.0503ZM66.4343 55.4279C64.704 55.4279 63.2469 53.9687 63.2469 52.2359C63.2469 50.5031 64.704 49.0439 66.4343 49.0439C68.1646 49.0439 69.6217 50.5031 69.6217 52.2359C69.6217 53.9687 68.1646 55.4279 66.4343 55.4279Z" fill="#1A1A1F"></path>
    <path d="M114.427 23.9634C83.1909 20.4978 78 7 78 7C78 7 70.9877 24.693 26 24.693V97.4714C26 106.227 30.9177 114.526 37.6567 121.731C52.9562 138.056 78 149 78 149C78 149 130 126.2 130 97.4714V24.693C124.809 24.7842 119.618 24.5106 114.427 23.9634ZM99.5832 43.6628V112.428C99.5832 114.526 97.944 116.259 95.8494 116.259C95.8494 116.259 95.8494 116.259 95.7583 116.259H58.6025C56.5079 116.259 54.7776 114.617 54.7776 112.52C54.7776 112.52 54.7776 112.52 54.7776 112.428V43.6628C54.7776 41.5652 56.4168 39.8324 58.5114 39.8324C58.5114 39.8324 58.5114 39.8324 58.6025 39.8324H95.7583C97.8529 39.8324 99.4921 41.474 99.5832 43.6628C99.5832 43.5716 99.5832 43.5716 99.5832 43.6628Z" fill="#1A1A1F"></path>
    <path d="M88.3818 76.2215H73.3555H66.07H65.979C63.338 76.2215 61.1523 78.4103 61.2434 81.1464C61.2434 83.7 63.2469 85.7976 65.7968 85.98C65.8879 85.98 66.07 85.98 66.1611 85.98H88.4728H88.5639C91.2049 85.98 93.3905 83.7912 93.2995 81.0552V80.964C93.2084 78.3191 91.0227 76.1303 88.3818 76.2215ZM66.4343 84.3384C64.704 84.3384 63.2469 82.8792 63.2469 81.1464C63.2469 79.4135 64.704 77.9543 66.4343 77.9543C68.1646 77.9543 69.6217 79.4135 69.6217 81.1464C69.6217 82.8792 68.1646 84.3384 66.4343 84.3384Z" fill="#1A1A1F"></path>
    <path d="M88.3818 61.7208H84.739H66.07H65.979C63.338 61.7208 61.1523 63.9096 61.1523 66.5544C61.1523 69.2905 63.338 71.4793 66.07 71.4793H77.0893H88.3818H88.4728C91.1138 71.4793 93.2995 69.2905 93.2084 66.5544V66.4632C93.2084 63.8184 91.0227 61.6296 88.3818 61.7208ZM66.4343 69.7465C64.704 69.7465 63.2469 68.2872 63.2469 66.5544C63.2469 64.8216 64.704 63.3624 66.4343 63.3624C68.1646 63.3624 69.6217 64.8216 69.6217 66.5544C69.6217 68.2872 68.1646 69.7465 66.4343 69.7465Z" fill="#1A1A1F"></path>
    <path d="M93.1173 51.0503C92.662 48.8615 90.6585 47.311 88.3818 47.311H66.07H65.979C63.338 47.311 61.1523 49.4999 61.2434 52.2359C61.3345 54.8807 63.429 57.0695 66.1611 57.1607H88.4728H88.5639C91.2049 57.1607 93.3905 54.9719 93.2995 52.2359V52.1447C93.2084 51.6887 93.2084 51.3239 93.1173 51.0503ZM66.4343 55.4279C64.704 55.4279 63.2469 53.9687 63.2469 52.2359C63.2469 50.5031 64.704 49.0439 66.4343 49.0439C68.1646 49.0439 69.6217 50.5031 69.6217 52.2359C69.6217 53.9687 68.1646 55.4279 66.4343 55.4279Z" fill="#1A1A1F"></path>
</svg>

<svg xmlns="http://www.w3.org/2000/svg" viewBox="0 0 156 156"><path d="M114.427 23.963C83.191 20.498 78 7 78 7s-7.012 17.693-52 17.693v72.778c0 8.756 4.918 17.055 11.657 24.26C52.957 138.056 78 149 78 149s52-22.8 52-51.529V24.693c-5.191.091-10.382-.182-15.573-.73zm-14.844 19.7v68.765c0 2.098-1.639 3.831-3.734 3.831H58.602c-2.094 0-3.824-1.642-3.824-3.739V43.663c0-2.098 1.639-3.83 3.733-3.83h37.247c2.095 0 3.734 1.641 3.825 3.83 0-.091 0-.091 0 0z" fill="#1A1A1F"/><path d="M88.382 76.222H65.979a4.75 4.75 0 0 0-4.736 4.924c0 2.554 2.004 4.652 4.554 4.834H88.563a4.75 4.75 0 0 0 4.736-4.925v-.091c-.09-2.645-2.276-4.834-4.917-4.742zm-21.948 8.116c-1.73 0-3.187-1.459-3.187-3.192s1.457-3.192 3.187-3.192c1.73 0 3.188 1.46 3.188 3.192 0 1.733-1.457 3.192-3.188 3.192zM88.382 61.72H65.979c-2.641 0-4.827 2.19-4.827 4.834a4.9 4.9 0 0 0 4.918 4.925H88.472a4.75 4.75 0 0 0 4.736-4.925v-.09c0-2.646-2.185-4.834-4.826-4.743zm-21.948 8.026c-1.73 0-3.187-1.459-3.187-3.192 0-1.732 1.457-3.192 3.187-3.192 1.73 0 3.188 1.46 3.188 3.192 0 1.733-1.457 3.192-3.188 3.192zM93.117 51.05c-.455-2.188-2.459-3.739-4.735-3.739H65.979a4.75 4.75 0 0 0-4.736 4.925c.091 2.645 2.186 4.834 4.918 4.925h22.402a4.75 4.75 0 0 0 4.736-4.925v-.091c-.09-.456-.09-.821-.182-1.095zm-26.683 4.378c-1.73 0-3.187-1.46-3.187-3.192 0-1.733 1.457-3.192 3.187-3.192 1.73 0 3.188 1.46 3.188 3.192 0 1.733-1.457 3.192-3.188 3.192z" fill="#1A1A1F"/><path d="M114.427 23.963C83.191 20.498 78 7 78 7s-7.012 17.693-52 17.693v72.778c0 8.756 4.918 17.055 11.657 24.26C52.957 138.056 78 149 78 149s52-22.8 52-51.529V24.693c-5.191.091-10.382-.182-15.573-.73zm-14.844 19.7v68.765c0 2.098-1.639 3.831-3.734 3.831H58.602c-2.094 0-3.824-1.642-3.824-3.739V43.663c0-2.098 1.639-3.83 3.733-3.83h37.247c2.095 0 3.734 1.641 3.825 3.83 0-.091 0-.091 0 0z" fill="#1A1A1F"/><path d="M88.382 76.222H65.979a4.75 4.75 0 0 0-4.736 4.924c0 2.554 2.004 4.652 4.554 4.834H88.563a4.75 4.75 0 0 0 4.736-4.925v-.091c-.09-2.645-2.276-4.834-4.917-4.742zm-21.948 8.116c-1.73 0-3.187-1.459-3.187-3.192s1.457-3.192 3.187-3.192c1.73 0 3.188 1.46 3.188 3.192 0 1.733-1.457 3.192-3.188 3.192zM88.382 61.72H65.979c-2.641 0-4.827 2.19-4.827 4.834a4.9 4.9 0 0 0 4.918 4.925H88.472a4.75 4.75 0 0 0 4.736-4.925v-.09c0-2.646-2.185-4.834-4.826-4.743zm-21.948 8.026c-1.73 0-3.187-1.459-3.187-3.192 0-1.732 1.457-3.192 3.187-3.192 1.73 0 3.188 1.46 3.188 3.192 0 1.733-1.457 3.192-3.188 3.192zM93.117 51.05c-.455-2.188-2.459-3.739-4.735-3.739H65.979a4.75 4.75 0 0 0-4.736 4.925c.091 2.645 2.186 4.834 4.918 4.925h22.402a4.75 4.75 0 0 0 4.736-4.925v-.091c-.09-.456-.09-.821-.182-1.095zm-26.683 4.378c-1.73 0-3.187-1.46-3.187-3.192 0-1.733 1.457-3.192 3.187-3.192 1.73 0 3.188 1.46 3.188 3.192 0 1.733-1.457 3.192-3.188 3.192z" fill="#1A1A1F"/></svg>
